packages/core/src/svgs/tokens/mono/ZBC.svg

<svg width="24" height="24" viewBox="0 0 24 24" fill="none" xmlns="http://www.w3.org/2000/svg">
<path d="M2.38507 13.2928C1.50172 12.3373 2.24618 10.7818 3.52398 10.8928L20.7243 12.4207C21.8465 12.5206 22.3965 13.865 21.6742 14.7541L18.4464 18.7096L18.0854 18.4041L18.4408 18.7096C18.3117 18.868 18.149 18.996 17.9647 19.0844C17.7802 19.1728 17.5786 19.2193 17.3742 19.2208H8.44072C8.05182 19.2208 7.68515 19.0541 7.42403 18.7707L2.38507 13.2873V13.2928ZM3.44065 11.8484C3.01841 11.8095 2.77397 12.3262 3.06286 12.6429L8.10182 18.1263C8.19071 18.2207 8.31294 18.2763 8.44072 18.2763H17.3742C17.5075 18.2763 17.6409 18.2152 17.7298 18.1096L20.9632 14.1484C21.202 13.854 21.0187 13.4039 20.6465 13.3706L3.44065 11.8428V11.8484Z" fill="white"/>
<path d="M5.60146 6.17034C5.87368 5.17589 6.96815 4.57588 8.03482 4.84255L18.685 7.51482C18.9901 7.58295 19.2636 7.75127 19.462 7.99291C19.6603 8.23455 19.7721 8.53563 19.7794 8.84817V8.95928C19.7794 9.77601 19.0184 10.4148 18.1405 10.3315L7.10147 9.22596C5.90701 9.10929 5.10145 8.03704 5.3959 6.94813L5.60146 6.17034ZM7.77371 5.73145C7.24037 5.59811 6.69591 5.89812 6.56258 6.39813L6.35147 7.17592C6.20702 7.72038 6.60702 8.25372 7.20703 8.31483L18.246 9.41485C18.535 9.4426 18.7905 9.2315 18.7905 8.95928V8.84817C18.7905 8.63705 18.6405 8.45928 18.4239 8.40372L7.77371 5.73701V5.73145Z" fill="white"/>
</svg>

<svg xmlns="http://www.w3.org/2000/svg" width="24" height="24" fill="none" viewBox="0 0 24 24">
    <path fill="#fff" d="M2.385 13.293c-.883-.956-.139-2.511 1.139-2.4l17.2 1.528c1.122.1 1.672 1.444.95 2.333l-3.228 3.956-.36-.306.355.306a1.39 1.39 0 0 1-1.067.51H8.441a1.38 1.38 0 0 1-1.017-.45l-5.039-5.483zm1.056-1.445c-.423-.039-.667.478-.378.795l5.039 5.483c.089.095.21.15.339.15h8.933a.47.47 0 0 0 .356-.166l3.233-3.962c.239-.294.056-.744-.317-.777L3.442 11.843zm2.16-5.678c.273-.994 1.367-1.594 2.434-1.327l10.65 2.672a1.4 1.4 0 0 1 1.094 1.333v.111c0 .817-.76 1.456-1.639 1.373L7.102 9.226c-1.194-.117-2-1.189-1.705-2.278zm2.173-.439c-.534-.133-1.078.167-1.211.667l-.212.778c-.144.544.256 1.078.856 1.139l11.039 1.1c.289.028.545-.183.545-.456v-.11a.466.466 0 0 0-.367-.445L7.774 5.737z"/>
</svg>
